X: 167
T: Earl of Home
C:Nath. Gow
O:Scotland
B:Keith Norman MacDonald : "The Skye collection of the best reels & strathspeys extant" : 1887
Z:Ralph Palmer
R:Strathspey
M:C
L:1/8
K:F
g !segno!|\
c<FTc>A d<GB>d | (c<F)Tc>A d>Bc>A | (B<d)(A<c) {/^F}G>AB<d | c<FTc>A c<FA :|
c |\
~(f>g){fg}a<f e>fg<a | ~(f>g){fg}a>f g>ef>d | T(c<A)f>A {/^F}G>AB<d | c<FTc>A c<FA>c |
T(f/e/)f/g/ a>f (e>f)g>a | (f>g){fg}a>f Tg>ef>d | c<Af>A {/^F}G>AB>d | {/d}c<A c(d/e/) fcd<f !segno!|]


